src/main/resources/icons/JavaUltimateIcons/icons/javaee/interceptorMethod@2x.svg

<svg xmlns="http://www.w3.org/2000/svg" width="16" height="16" viewBox="0 0 16 16">
  <g fill="none" fill-rule="evenodd">
    <path fill="#F98B9E" fill-opacity=".6" d="M14.8491776,9.45216878 C14.296133,9.16332374 13.6671397,9 13,9 C10.790861,9 9,10.790861 9,13 C9,13.6671397 9.16332374,14.296133 9.45216878,14.8491776 C8.98367536,14.9480154 8.49790863,15 8,15 C4.134,15 1,11.866 1,8 C1,4.134 4.134,1 8,1 C11.866,1 15,4.134 15,8 C15,8.49790863 14.9480154,8.98367536 14.8491776,9.45216878 Z"/>
    <circle cx="13" cy="13" r="3" fill="#62B543"/>
    <path fill="#231F20" fill-opacity=".7" d="M11.9940791,9.12724629 C11.6432873,9.21811015 11.3111802,9.35538018 11.0046997,9.53211441 C11.0046997,9.15110378 11.0046997,8.64029898 11.0046997,7.9997 C11.0041373,7.73931181 10.8041369,6.9997 9.781628,6.9997 C8.7591191,6.9997 8.5,7.6857 8.5,7.9997 L8.5,11 L7.5,11 L7.5,7.9997 C7.499,7.5367 7.15,6.9997 6.2,6.9997 C5.25,6.9997 5.05,7.7654 5,7.9997 C4.96666667,8.1559 4.96666667,9.156 5,11 L4,11 L4,6 L5,6 L5,6.398931 C5.46527507,6.132977 5.93194173,6 6.4,6 C7.13333333,6 7.69953333,6.20129567 8.0986,6.60388701 C8.49762904,6.20129567 9.0919717,6 9.881628,6 C11.4984741,6 11.9912,7.2507 11.9922,7.9997 L11.9940791,9.12724629 Z"/>
  </g>
</svg>

<svg xmlns="http://www.w3.org/2000/svg" width="16" height="16" viewBox="0 0 16 16"><rect id="frame" width="16" height="16" fill="none"/><g fill="none" fill-rule="evenodd"><path fill="#F98B9E" fill-opacity=".6" d="M14.85 9.452a4 4 0 0 0-5.397 5.397 7 7 0 1 1 5.397-5.397z"/><circle cx="13" cy="13" r="3" fill="#62B543"/><path fill="#231F20" fill-opacity=".7" d="M11.994 9.127c-.35.091-.683.228-.99.405V8c0-.26-.2-1-1.222-1C8.759 7 8.5 7.686 8.5 8v3h-1V8c-.001-.463-.35-1-1.3-1-.95 0-1.15.765-1.2 1-.033.156-.033 1.156 0 3H4V6h1v.399C5.465 6.133 5.932 6 6.4 6c.733 0 1.3.201 1.699.604C8.498 6.2 9.092 6 9.882 6c1.616 0 2.11 1.25 2.11 2l.002 1.127z"/></g></svg>
